Newaita-dark/apps/48/lookbook.svg

<svg height="48pt" viewBox="0 0 48 48" width="48pt" xmlns="http://www.w3.org/2000/svg" xmlns:xlink="http://www.w3.org/1999/xlink"><linearGradient id="a" gradientUnits="userSpaceOnUse" x1="23.81478" x2="23.81478" y1="42.0509045" y2="44.03547050005"><stop offset="0" stop-opacity=".27451"/><stop offset="1" stop-opacity="0"/></linearGradient><linearGradient id="b"><stop offset="0" stop-opacity=".313726"/><stop offset=".222222" stop-opacity=".27451"/><stop offset="1" stop-opacity="0"/></linearGradient><radialGradient id="c" cx="450.908936" cy="189.579361" gradientTransform="matrix(.00000026 -.117199 -.210958 -.00000015 75.219128 95.392999)" gradientUnits="userSpaceOnUse" r="21.166656" xlink:href="#b"/><radialGradient id="d" cx="450.908936" cy="189.579361" gradientTransform="matrix(-.00000026 .117199 .210958 .00000015 -27.589573 -11.29122)" gradientUnits="userSpaceOnUse" r="21.166656" xlink:href="#b"/><radialGradient id="e" cx="450.908936" cy="189.579361" gradientTransform="matrix(-.00000026 -.117199 .210958 -.00000015 -27.589573 95.392999)" gradientUnits="userSpaceOnUse" r="21.166656" xlink:href="#b"/><radialGradient id="f" cx="450.908936" cy="189.579361" gradientTransform="matrix(.00000026 .117199 -.210958 .00000015 75.219126 -11.291219)" gradientUnits="userSpaceOnUse" r="21.166656" xlink:href="#b"/><linearGradient id="g" gradientTransform="matrix(.113024 0 0 .326118 -8.78102 50.462022)" gradientUnits="userSpaceOnUse" x1="306.916656" x2="305.954559" y1="-25.791676" y2="-141.414581"><stop offset="0" stop-color="#5c6bc0"/><stop offset="1" stop-color="#64b5f6"/></linearGradient><linearGradient id="h" gradientTransform="matrix(4.556143 0 0 13.146184 -353.972656 2034.180176)" gradientUnits="userSpaceOnUse" x1="165.484848" x2="165.484848" y1="-25.791672" y2="-141.414581"><stop offset="0" stop-color="#424242"/><stop offset="1" stop-color="#616161"/></linearGradient><path d="m11.90625 42.050781h23.816406v1.984375h-23.816406zm0 0" fill="url(#a)"/><path d="m35.722656 42.050781h3.96875v-1.984375h-3.96875zm0 0" fill="url(#c)"/><path d="m11.90625 42.050781h-3.96875v1.984375h3.96875zm0 0" fill="url(#d)"/><path d="m11.90625 42.050781h-3.96875v-1.984375h3.96875zm0 0" fill="url(#e)"/><path d="m35.722656 42.050781h3.96875v1.984375h-3.96875zm0 0" fill="url(#f)"/><path d="m9.921875 4.34375h27.785156c1.097657 0 1.984375.890625 1.984375 1.984375v33.738281c0 1.097656-.886718 1.984375-1.984375 1.984375h-27.785156c-1.09375 0-1.984375-.886719-1.984375-1.984375v-33.738281c0-1.09375.890625-1.984375 1.984375-1.984375zm0 0" fill="url(#g)"/><path d="m399.961827 175.101398c-44.247746 0-79.992366 35.74462-79.992366 79.992365v1360.027676c0 44.247745 35.74462 79.992365 79.992366 79.992365h119.988548v-1520.012406zm0 0" fill="url(#h)" stroke="#212121" stroke-linecap="round" stroke-width="11.338583" transform="scale(.0248071)"/><path d="m9.921875 42.050781c-1.097656 0-1.984375-.886719-1.984375-1.984375v-.25c0 1.101563.886719 1.988282 1.984375 1.988282h27.785156c1.097657 0 1.984375-.886719 1.984375-1.988282v.25c0 1.097656-.886718 1.984375-1.984375 1.984375zm0 0" fill-opacity=".196078"/><path d="m9.921875 4.34375c-1.097656 0-1.984375.886719-1.984375 1.984375v.25c0-1.101563.886719-1.988281 1.984375-1.984375h27.785156c1.097657-.003906 1.984375.882812 1.984375 1.984375v-.25c0-1.097656-.886718-1.984375-1.984375-1.984375zm0 0" fill="#e6e6e6" fill-opacity=".937239"/><path d="m9.921875 4.203125c-1.175781 0-2.125.949219-2.125 2.125v33.738281c0 1.175782.949219 2.125 2.125 2.125h27.785156c1.175781 0 2.125-.949218 2.125-2.125v-33.738281c0-1.175781-.949219-2.125-2.125-2.125zm0 .28125h27.785156c1.023438 0 1.84375.820313 1.84375 1.84375v33.738281c0 1.023438-.820312 1.84375-1.84375 1.84375h-27.785156c-1.023437 0-1.84375-.820312-1.84375-1.84375v-33.738281c0-1.023437.820313-1.84375 1.84375-1.84375zm0 0" fill="#212121"/><path d="m24.445312 13.222656c-1.773437 0-3.550781.679688-4.910156 2.039063-2.722656 2.722656-2.722656 7.101562 0 9.824219 2.484375 2.484374 6.347656 2.699218 9.074219.652343.015625.015625.03125.03125.046875.050781l.703125.699219c-.390625.390625-.390625 1.015625 0 1.40625l2.804687 2.804688c.390626.390625 1.015626.390625 1.402344 0l1.402344-1.402344c.390625-.390625.390625-1.015625 0-1.402344l-2.804688-2.808593c-.390624-.386719-1.015624-.386719-1.402343 0l-.703125-.703126c-.015625-.015624-.035156-.03125-.050782-.046874 2.050782-2.722657 1.832032-6.589844-.648437-9.074219-1.363281-1.359375-3.136719-2.039063-4.914063-2.039063zm-.132812 2.035156c2.746094 0 4.960938 2.214844 4.960938 4.960938 0 2.75-2.214844 4.964844-4.960938 4.964844-2.75 0-4.964844-2.214844-4.964844-4.964844 0-2.746094 2.214844-4.960938 4.964844-4.960938zm0 0" fill="#e0e0e0"/><path d="m24.445312 13.222656c-1.773437 0-3.550781.679688-4.910156 2.039063-1.445312 1.449219-2.125 3.363281-2.035156 5.25.082031-1.664063.761719-3.300781 2.035156-4.574219 1.359375-1.363281 3.136719-2.042969 4.910156-2.042969 1.777344 0 3.550782.679688 4.914063 2.042969 1.273437 1.273438 1.949219 2.910156 2.03125 4.570312.089844-1.882812-.585937-3.796874-2.03125-5.246093-1.363281-1.359375-3.136719-2.039063-4.914063-2.039063zm-5.085937 7.335938c-.003906.109375-.011719.222656-.011719.335937 0 2.746094 2.214844 4.960938 4.964844 4.960938 2.746094 0 4.960938-2.214844 4.960938-4.960938 0-.113281-.003907-.226562-.011719-.335937-.171875 2.589844-2.316407 4.625-4.949219 4.625-2.636719 0-4.78125-2.035156-4.953125-4.625zm10.925781 4.050781c-.085937.136719-.179687.269531-.277344.398437.015626.015626.035157.03125.050782.050782l.703125.699218c.386719-.386718 1.011719-.386718 1.402343 0l2.804688 2.808594c.109375.105469.1875.230469.234375.363282.125-.347657.050781-.753907-.234375-1.035157l-2.804688-2.808593c-.390624-.386719-1.015624-.386719-1.402343 0zm-1.179687 2.300781c-.058594.203125-.050781.417969.019531.617188.046875-.132813.125-.257813.234375-.367188zm0 0" fill="#fff" fill-opacity=".588235"/><path d="m24.3125 15.382812c-2.5625 0-4.65625 1.917969-4.933594 4.402344-.011718-.105468-.019531-.207031-.023437-.316406-.003907.085938-.007813.167969-.007813.253906 0 .1875.011719.375.03125.558594.277344-2.484375 2.371094-4.402344 4.933594-4.402344 2.558594 0 4.652344 1.917969 4.929688 4.402344.019531-.183594.03125-.371094.03125-.558594 0-.085937-.003907-.167968-.007813-.253906-.003906.109375-.011719.210938-.023437.316406-.277344-2.484375-2.371094-4.402344-4.929688-4.402344zm-6.8125 5.164063c-.066406 1.855469.609375 3.734375 2.035156 5.15625 2.484375 2.484375 6.347656 2.703125 9.074219.652344.015625.015625.03125.035156.046875.050781l.417969.417969c-.039063-.292969.054687-.605469.285156-.832031l-.203125-.203126c-.078125.171876-.105469.359376-.082031.539063l-.417969-.417969c-.015625-.015625-.03125-.035156-.046875-.050781-2.726563 2.050781-6.589844 1.832031-9.074219-.652344-1.296875-1.296875-1.976562-2.96875-2.035156-4.660156zm13.894531 0c-.042969 1.121094-.355469 2.238281-.941406 3.238281l-.238281-.238281c-.066406.097656-.136719.195313-.207032.292969.015626.015625.035157.03125.050782.046875l.394531.394531c.671875-1.148438.984375-2.445312.941406-3.734375zm-2.296875 7.015625c-.085937.328125 0 .691406.261719.949219l2.804687 2.804687c.390626.390625 1.015626.390625 1.402344 0l1.402344-1.402344c.261719-.257812.347656-.621093.261719-.949218-.042969.167968-.128907.324218-.261719.453125l-1.402344 1.402343c-.386718.390626-1.011718.390626-1.402344 0l-2.804687-2.804687c-.132813-.128906-.21875-.289063-.261719-.453125zm0 0" fill-opacity=".235294"/><path d="m985.41776 533.019993c-71.48924 0-143.135945 27.39896-197.933864 82.19688-109.753305 109.753304-109.753305 286.27189 0 396.025194 100.147921 100.147922 255.881089 108.808513 365.791859 26.296703.629861.629861 1.259722 1.259722 1.889583 2.047049l28.343752 28.186286c-15.746529 15.746528-15.746529 40.940974 0 56.687503l113.060075 113.060075c15.746529 15.746529 40.940975 15.746529 56.530038 0l56.530038-56.530038c15.746528-15.746528 15.746528-40.940974 0-56.530037l-113.060076-113.217541c-15.746528-15.589063-40.940974-15.589063-56.530037 0l-28.343752-28.343751c-.629861-.629862-1.417187-1.259723-2.047049-1.889584 82.669276-109.753304 73.85122-265.643937-26.139237-365.791859-54.955385-54.79792-126.444625-82.19688-198.09133-82.19688zm-5.35382 82.039414c110.698097 0 199.980914 89.282818 199.980914 199.980914 0 110.855561-89.282817 200.138378-199.980914 200.138378-110.855561 0-200.138378-89.282817-200.138378-200.138378 0-110.698096 89.282817-199.980914 200.138378-199.980914zm0 0" fill="none" stroke="#212121" stroke-linecap="round" stroke-linejoin="round" stroke-width="11.338583" transform="scale(.0248071)"/></svg>

<?xml version="1.0" encoding="UTF-8"?>
<svg xmlns="http://www.w3.org/2000/svg" xmlns:xlink="http://www.w3.org/1999/xlink" width="48pt" height="48pt" viewBox="0 0 48 48" version="1.1">
<defs>
<linearGradient id="linear0" gradientUnits="userSpaceOnUse" x1="254" y1="233.5" x2="254" y2="254.666672" gradientTransform="matrix(0.093759,0,0,0.093759,-0.00000572259,20.158178)">
<stop offset="0" style="stop-color:rgb(0%,0%,0%);stop-opacity:0.27451;"/>
<stop offset="1" style="stop-color:rgb(0%,0%,0%);stop-opacity:0;"/>
</linearGradient>
<radialGradient id="radial0" gradientUnits="userSpaceOnUse" cx="450.908936" cy="189.579361" fx="450.908936" fy="189.579361" r="21.166656" gradientTransform="matrix(0.000000261256,-0.117199,-0.210958,-0.000000152308,75.219128,95.392999)">
<stop offset="0" style="stop-color:rgb(0%,0%,0%);stop-opacity:0.313726;"/>
<stop offset="0.222222" style="stop-color:rgb(0%,0%,0%);stop-opacity:0.27451;"/>
<stop offset="1" style="stop-color:rgb(0%,0%,0%);stop-opacity:0;"/>
</radialGradient>
<radialGradient id="radial1" gradientUnits="userSpaceOnUse" cx="450.908936" cy="189.579361" fx="450.908936" fy="189.579361" r="21.166656" gradientTransform="matrix(-0.000000261256,0.117199,0.210958,0.000000152308,-27.589573,-11.29122)">
<stop offset="0" style="stop-color:rgb(0%,0%,0%);stop-opacity:0.313726;"/>
<stop offset="0.222222" style="stop-color:rgb(0%,0%,0%);stop-opacity:0.27451;"/>
<stop offset="1" style="stop-color:rgb(0%,0%,0%);stop-opacity:0;"/>
</radialGradient>
<radialGradient id="radial2" gradientUnits="userSpaceOnUse" cx="450.908936" cy="189.579361" fx="450.908936" fy="189.579361" r="21.166656" gradientTransform="matrix(-0.000000261256,-0.117199,0.210958,-0.000000152308,-27.589573,95.392999)">
<stop offset="0" style="stop-color:rgb(0%,0%,0%);stop-opacity:0.313726;"/>
<stop offset="0.222222" style="stop-color:rgb(0%,0%,0%);stop-opacity:0.27451;"/>
<stop offset="1" style="stop-color:rgb(0%,0%,0%);stop-opacity:0;"/>
</radialGradient>
<radialGradient id="radial3" gradientUnits="userSpaceOnUse" cx="450.908936" cy="189.579361" fx="450.908936" fy="189.579361" r="21.166656" gradientTransform="matrix(0.000000261256,0.117199,-0.210958,0.000000152308,75.219126,-11.291219)">
<stop offset="0" style="stop-color:rgb(0%,0%,0%);stop-opacity:0.313726;"/>
<stop offset="0.222222" style="stop-color:rgb(0%,0%,0%);stop-opacity:0.27451;"/>
<stop offset="1" style="stop-color:rgb(0%,0%,0%);stop-opacity:0;"/>
</radialGradient>
<linearGradient id="linear1" gradientUnits="userSpaceOnUse" x1="306.916656" y1="-25.791676" x2="305.954559" y2="-141.414581" gradientTransform="matrix(0.113024,0,0,0.326118,-8.78102,50.462022)">
<stop offset="0" style="stop-color:rgb(36.078432%,41.960785%,75.294119%);stop-opacity:1;"/>
<stop offset="1" style="stop-color:rgb(39.215687%,70.980394%,96.470588%);stop-opacity:1;"/>
</linearGradient>
<linearGradient id="linear2" gradientUnits="userSpaceOnUse" x1="165.484848" y1="-25.791672" x2="165.484848" y2="-141.414581" gradientTransform="matrix(4.556143,0,0,13.146184,-353.972656,2034.180176)">
<stop offset="0" style="stop-color:rgb(25.882354%,25.882354%,25.882354%);stop-opacity:1;"/>
<stop offset="1" style="stop-color:rgb(38.039216%,38.039216%,38.039216%);stop-opacity:1;"/>
</linearGradient>
</defs>
<g id="surface1">
<path style=" stroke:none;fill-rule:nonzero;fill:url(#linear0);" d="M 11.90625 42.050781 L 35.722656 42.050781 L 35.722656 44.035156 L 11.90625 44.035156 Z M 11.90625 42.050781 "/>
<path style=" stroke:none;fill-rule:nonzero;fill:url(#radial0);" d="M 35.722656 42.050781 L 39.691406 42.050781 L 39.691406 40.066406 L 35.722656 40.066406 Z M 35.722656 42.050781 "/>
<path style=" stroke:none;fill-rule:nonzero;fill:url(#radial1);" d="M 11.90625 42.050781 L 7.9375 42.050781 L 7.9375 44.035156 L 11.90625 44.035156 Z M 11.90625 42.050781 "/>
<path style=" stroke:none;fill-rule:nonzero;fill:url(#radial2);" d="M 11.90625 42.050781 L 7.9375 42.050781 L 7.9375 40.066406 L 11.90625 40.066406 Z M 11.90625 42.050781 "/>
<path style=" stroke:none;fill-rule:nonzero;fill:url(#radial3);" d="M 35.722656 42.050781 L 39.691406 42.050781 L 39.691406 44.035156 L 35.722656 44.035156 Z M 35.722656 42.050781 "/>
<path style=" stroke:none;fill-rule:nonzero;fill:url(#linear1);" d="M 9.921875 4.34375 L 37.707031 4.34375 C 38.804688 4.34375 39.691406 5.234375 39.691406 6.328125 L 39.691406 40.066406 C 39.691406 41.164062 38.804688 42.050781 37.707031 42.050781 L 9.921875 42.050781 C 8.828125 42.050781 7.9375 41.164062 7.9375 40.066406 L 7.9375 6.328125 C 7.9375 5.234375 8.828125 4.34375 9.921875 4.34375 Z M 9.921875 4.34375 "/>
<path style="fill-rule:nonzero;fill:url(#linear2);stroke-width:11.338583;stroke-linecap:round;stroke-linejoin:miter;stroke:rgb(12.941177%,12.941177%,12.941177%);stroke-opacity:1;stroke-miterlimit:4;" d="M 399.961827 175.101398 C 355.714081 175.101398 319.969461 210.846018 319.969461 255.093763 L 319.969461 1615.121439 C 319.969461 1659.369184 355.714081 1695.113804 399.961827 1695.113804 L 519.950375 1695.113804 L 519.950375 175.101398 Z M 399.961827 175.101398 " transform="matrix(0.0248071,0,0,0.0248071,0,0)"/>
<path style=" stroke:none;fill-rule:nonzero;fill:rgb(0%,0%,0%);fill-opacity:0.196078;" d="M 9.921875 42.050781 C 8.824219 42.050781 7.9375 41.164062 7.9375 40.066406 L 7.9375 39.816406 C 7.9375 40.917969 8.824219 41.804688 9.921875 41.804688 L 37.707031 41.804688 C 38.804688 41.804688 39.691406 40.917969 39.691406 39.816406 L 39.691406 40.066406 C 39.691406 41.164062 38.804688 42.050781 37.707031 42.050781 Z M 9.921875 42.050781 "/>
<path style=" stroke:none;fill-rule:nonzero;fill:rgb(90.196079%,90.196079%,90.196079%);fill-opacity:0.937239;" d="M 9.921875 4.34375 C 8.824219 4.34375 7.9375 5.230469 7.9375 6.328125 L 7.9375 6.578125 C 7.9375 5.476562 8.824219 4.589844 9.921875 4.59375 L 37.707031 4.59375 C 38.804688 4.589844 39.691406 5.476562 39.691406 6.578125 L 39.691406 6.328125 C 39.691406 5.230469 38.804688 4.34375 37.707031 4.34375 Z M 9.921875 4.34375 "/>
<path style=" stroke:none;fill-rule:nonzero;fill:rgb(12.941177%,12.941177%,12.941177%);fill-opacity:1;" d="M 9.921875 4.203125 C 8.746094 4.203125 7.796875 5.152344 7.796875 6.328125 L 7.796875 40.066406 C 7.796875 41.242188 8.746094 42.191406 9.921875 42.191406 L 37.707031 42.191406 C 38.882812 42.191406 39.832031 41.242188 39.832031 40.066406 L 39.832031 6.328125 C 39.832031 5.152344 38.882812 4.203125 37.707031 4.203125 Z M 9.921875 4.484375 L 37.707031 4.484375 C 38.730469 4.484375 39.550781 5.304688 39.550781 6.328125 L 39.550781 40.066406 C 39.550781 41.089844 38.730469 41.910156 37.707031 41.910156 L 9.921875 41.910156 C 8.898438 41.910156 8.078125 41.089844 8.078125 40.066406 L 8.078125 6.328125 C 8.078125 5.304688 8.898438 4.484375 9.921875 4.484375 Z M 9.921875 4.484375 "/>
<path style=" stroke:none;fill-rule:nonzero;fill:rgb(87.843138%,87.843138%,87.843138%);fill-opacity:1;" d="M 24.445312 13.222656 C 22.671875 13.222656 20.894531 13.902344 19.535156 15.261719 C 16.8125 17.984375 16.8125 22.363281 19.535156 25.085938 C 22.019531 27.570312 25.882812 27.785156 28.609375 25.738281 C 28.625 25.753906 28.640625 25.769531 28.65625 25.789062 L 29.359375 26.488281 C 28.96875 26.878906 28.96875 27.503906 29.359375 27.894531 L 32.164062 30.699219 C 32.554688 31.089844 33.179688 31.089844 33.566406 30.699219 L 34.96875 29.296875 C 35.359375 28.90625 35.359375 28.28125 34.96875 27.894531 L 32.164062 25.085938 C 31.773438 24.699219 31.148438 24.699219 30.761719 25.085938 L 30.058594 24.382812 C 30.042969 24.367188 30.023438 24.351562 30.007812 24.335938 C 32.058594 21.613281 31.839844 17.746094 29.359375 15.261719 C 27.996094 13.902344 26.222656 13.222656 24.445312 13.222656 Z M 24.3125 15.257812 C 27.058594 15.257812 29.273438 17.472656 29.273438 20.21875 C 29.273438 22.96875 27.058594 25.183594 24.3125 25.183594 C 21.5625 25.183594 19.347656 22.96875 19.347656 20.21875 C 19.347656 17.472656 21.5625 15.257812 24.3125 15.257812 Z M 24.3125 15.257812 "/>
<path style=" stroke:none;fill-rule:nonzero;fill:rgb(100%,100%,100%);fill-opacity:0.588235;" d="M 24.445312 13.222656 C 22.671875 13.222656 20.894531 13.902344 19.535156 15.261719 C 18.089844 16.710938 17.410156 18.625 17.5 20.511719 C 17.582031 18.847656 18.261719 17.210938 19.535156 15.9375 C 20.894531 14.574219 22.671875 13.894531 24.445312 13.894531 C 26.222656 13.894531 27.996094 14.574219 29.359375 15.9375 C 30.632812 17.210938 31.308594 18.847656 31.390625 20.507812 C 31.480469 18.625 30.804688 16.710938 29.359375 15.261719 C 27.996094 13.902344 26.222656 13.222656 24.445312 13.222656 Z M 19.359375 20.558594 C 19.355469 20.667969 19.347656 20.78125 19.347656 20.894531 C 19.347656 23.640625 21.5625 25.855469 24.3125 25.855469 C 27.058594 25.855469 29.273438 23.640625 29.273438 20.894531 C 29.273438 20.78125 29.269531 20.667969 29.261719 20.558594 C 29.089844 23.148438 26.945312 25.183594 24.3125 25.183594 C 21.675781 25.183594 19.53125 23.148438 19.359375 20.558594 Z M 30.285156 24.609375 C 30.199219 24.746094 30.105469 24.878906 30.007812 25.007812 C 30.023438 25.023438 30.042969 25.039062 30.058594 25.058594 L 30.761719 25.757812 C 31.148438 25.371094 31.773438 25.371094 32.164062 25.757812 L 34.96875 28.566406 C 35.078125 28.671875 35.15625 28.796875 35.203125 28.929688 C 35.328125 28.582031 35.253906 28.175781 34.96875 27.894531 L 32.164062 25.085938 C 31.773438 24.699219 31.148438 24.699219 30.761719 25.085938 Z M 29.105469 26.910156 C 29.046875 27.113281 29.054688 27.328125 29.125 27.527344 C 29.171875 27.394531 29.25 27.269531 29.359375 27.160156 Z M 29.105469 26.910156 "/>
<path style=" stroke:none;fill-rule:nonzero;fill:rgb(0%,0%,0%);fill-opacity:0.235294;" d="M 24.3125 15.382812 C 21.75 15.382812 19.65625 17.300781 19.378906 19.785156 C 19.367188 19.679688 19.359375 19.578125 19.355469 19.46875 C 19.351562 19.554688 19.347656 19.636719 19.347656 19.722656 C 19.347656 19.910156 19.359375 20.097656 19.378906 20.28125 C 19.65625 17.796875 21.75 15.878906 24.3125 15.878906 C 26.871094 15.878906 28.964844 17.796875 29.242188 20.28125 C 29.261719 20.097656 29.273438 19.910156 29.273438 19.722656 C 29.273438 19.636719 29.269531 19.554688 29.265625 19.46875 C 29.261719 19.578125 29.253906 19.679688 29.242188 19.785156 C 28.964844 17.300781 26.871094 15.382812 24.3125 15.382812 Z M 17.5 20.546875 C 17.433594 22.402344 18.109375 24.28125 19.535156 25.703125 C 22.019531 28.1875 25.882812 28.40625 28.609375 26.355469 C 28.625 26.371094 28.640625 26.390625 28.65625 26.40625 L 29.074219 26.824219 C 29.035156 26.53125 29.128906 26.21875 29.359375 25.992188 L 29.15625 25.789062 C 29.078125 25.960938 29.050781 26.148438 29.074219 26.328125 L 28.65625 25.910156 C 28.640625 25.894531 28.625 25.875 28.609375 25.859375 C 25.882812 27.910156 22.019531 27.691406 19.535156 25.207031 C 18.238281 23.910156 17.558594 22.238281 17.5 20.546875 Z M 31.394531 20.546875 C 31.351562 21.667969 31.039062 22.785156 30.453125 23.785156 L 30.214844 23.546875 C 30.148438 23.644531 30.078125 23.742188 30.007812 23.839844 C 30.023438 23.855469 30.042969 23.871094 30.058594 23.886719 L 30.453125 24.28125 C 31.125 23.132812 31.4375 21.835938 31.394531 20.546875 Z M 29.097656 27.5625 C 29.011719 27.890625 29.097656 28.253906 29.359375 28.511719 L 32.164062 31.316406 C 32.554688 31.707031 33.179688 31.707031 33.566406 31.316406 L 34.96875 29.914062 C 35.230469 29.65625 35.316406 29.292969 35.230469 28.964844 C 35.1875 29.132812 35.101562 29.289062 34.96875 29.417969 L 33.566406 30.820312 C 33.179688 31.210938 32.554688 31.210938 32.164062 30.820312 L 29.359375 28.015625 C 29.226562 27.886719 29.140625 27.726562 29.097656 27.5625 Z M 29.097656 27.5625 "/>
<path style="fill:none;stroke-width:11.338583;stroke-linecap:round;stroke-linejoin:round;stroke:rgb(12.941177%,12.941177%,12.941177%);stroke-opacity:1;stroke-miterlimit:4;" d="M 985.41776 533.019993 C 913.92852 533.019993 842.281815 560.418953 787.483896 615.216873 C 677.730591 724.970177 677.730591 901.488763 787.483896 1011.242067 C 887.631817 1111.389989 1043.364985 1120.05058 1153.275755 1037.53877 C 1153.905616 1038.168631 1154.535477 1038.798492 1155.165338 1039.585819 L 1183.50909 1067.772105 C 1167.762561 1083.518633 1167.762561 1108.713079 1183.50909 1124.459608 L 1296.569165 1237.519683 C 1312.315694 1253.266212 1337.51014 1253.266212 1353.099203 1237.519683 L 1409.629241 1180.989645 C 1425.375769 1165.243117 1425.375769 1140.048671 1409.629241 1124.459608 L 1296.569165 1011.242067 C 1280.822637 995.653004 1255.628191 995.653004 1240.039128 1011.242067 L 1211.695376 982.898316 C 1211.065515 982.268454 1210.278189 981.638593 1209.648327 981.008732 C 1292.317603 871.255428 1283.499547 715.364795 1183.50909 615.216873 C 1128.553705 560.418953 1057.064465 533.019993 985.41776 533.019993 Z M 980.06394 615.059407 C 1090.762037 615.059407 1180.044854 704.342225 1180.044854 815.040321 C 1180.044854 925.895882 1090.762037 1015.178699 980.06394 1015.178699 C 869.208379 1015.178699 779.925562 925.895882 779.925562 815.040321 C 779.925562 704.342225 869.208379 615.059407 980.06394 615.059407 Z M 980.06394 615.059407 " transform="matrix(0.0248071,0,0,0.0248071,0,0)"/>
</g>
</svg>
